build/system/DatabasesOutline.svg

<svg xmlns="http://www.w3.org/2000/svg" fill="none" viewBox="0 0 24 24" focusable="false"><path d="M0 0H24V24H0z"/><path fill="#74767B" fill-rule="evenodd" d="M17.6997 3.3501C19.3564 3.3501 20.6997 4.69336 20.6997 6.3501L20.6997 16.3501C20.6997 18.0068 19.3564 19.3501 17.6997 19.3501L9.69971 19.3501C8.04297 19.3501 6.69971 18.0068 6.69971 16.3501L6.69971 6.3501C6.69971 4.69336 8.04297 3.3501 9.69971 3.3501L17.6997 3.3501ZM9.69971 4.6499L17.6997 4.6499C18.6387 4.6499 19.3999 5.41113 19.3999 6.3501L19.3999 10.8285L8 10.8153L8 6.3501C8 5.41113 8.76074 4.6499 9.69971 4.6499ZM10.0498 8.2002C10.0498 7.73047 10.4302 7.3501 10.8999 7.3501C11.3691 7.3501 11.75 7.73047 11.75 8.2002C11.75 8.66943 11.3691 9.05029 10.8999 9.05029C10.4302 9.05029 10.0498 8.66943 10.0498 8.2002ZM4.69971 8.7002C4.34082 8.7002 4.0498 8.99121 4.0498 9.3501L4.0498 18.75C4.0498 20.5449 5.50488 22 7.2998 22L15.6997 22C16.0586 22 16.3496 21.709 16.3496 21.3501C16.3496 20.9912 16.0586 20.7002 15.6997 20.7002L7.2998 20.7002C6.22266 20.7002 5.34961 19.8271 5.34961 18.75L5.34961 9.3501C5.34961 8.99121 5.05859 8.7002 4.69971 8.7002ZM8 12.116L19.3999 12.1293L19.3999 16.3501C19.3999 17.2891 18.6387 18.0503 17.6997 18.0503L9.69971 18.0503C8.76074 18.0503 8 17.2891 8 16.3501L8 12.116ZM10.8999 14.3501C10.4302 14.3501 10.0498 14.7305 10.0498 15.2002C10.0498 15.6694 10.4302 16.0503 10.8999 16.0503C11.3691 16.0503 11.75 15.6694 11.75 15.2002C11.75 14.7305 11.3691 14.3501 10.8999 14.3501Z"/></svg>

<svg xmlns="http://www.w3.org/2000/svg" fill="none" viewBox="0 0 24 24" focusable="false"><path fill="#74767B" fill-rule="evenodd" d="M17.69 3.35c1.66 0 3 1.34 3 3v10c0 1.65-1.34 3-3 3h-8c-1.65 0-3-1.35-3-3v-10c0-1.66 1.35-3 3-3zm-8 1.29h8c.94 0 1.7.77 1.7 1.71v4.47L8 10.81V6.35c0-.94.76-1.71 1.69-1.71m.35 3.56a.856.856 0 0 1 1.71 0c0 .46-.39.85-.86.85-.46 0-.85-.39-.85-.85m-5.35.5c-.35 0-.65.29-.65.65v9.4C4.04 20.54 5.5 22 7.29 22h8.4c.36 0 .65-.3.65-.65 0-.36-.29-.65-.65-.65h-8.4c-1.07 0-1.95-.88-1.95-1.95v-9.4c0-.36-.29-.65-.65-.65M8 12.11l11.39.01v4.23c0 .93-.76 1.7-1.7 1.7h-8c-.93 0-1.69-.77-1.69-1.7zm2.89 2.24c-.46 0-.85.38-.85.85 0 .46.39.85.85.85.47 0 .86-.39.86-.85 0-.47-.39-.85-.86-.85"/></svg>
